images/show-apps-button.svg

<svg xmlns="http://www.w3.org/2000/svg" width="408" height="408" style="enable-background:new 0 0 408 408" xml:space="preserve"><path d="M0 102h102V0H0v102zm153 306h102V306H153v102zM0 408h102V306H0v102zm0-153h102V153H0v102zm153 0h102V153H153v102zM306 0v102h102V0H306zM153 102h102V0H153v102zm153 153h102V153H306v102zm0 153h102V306H306v102z"/></svg>

<?xml version="1.0" encoding="iso-8859-1"?>
<!-- Generator: Adobe Illustrator 16.0.0, SVG Export Plug-In . SVG Version: 6.00 Build 0)  -->
<!DOCTYPE svg PUBLIC "-//W3C//DTD SVG 1.1//EN" "http://www.w3.org/Graphics/SVG/1.1/DTD/svg11.dtd">
<svg version="1.1" id="Capa_1" xmlns="http://www.w3.org/2000/svg" xmlns:xlink="http://www.w3.org/1999/xlink" x="0px" y="0px"
	 width="408px" height="408px" viewBox="0 0 408 408" style="enable-background:new 0 0 408 408;" xml:space="preserve">
<g>
	<g id="apps">
		<path d="M0,102h102V0H0V102z M153,408h102V306H153V408z M0,408h102V306H0V408z M0,255h102V153H0V255z M153,255h102V153H153V255z
			 M306,0v102h102V0H306z M153,102h102V0H153V102z M306,255h102V153H306V255z M306,408h102V306H306V408z"/>
	</g>
</g>
<g>
</g>
<g>
</g>
<g>
</g>
<g>
</g>
<g>
</g>
<g>
</g>
<g>
</g>
<g>
</g>
<g>
</g>
<g>
</g>
<g>
</g>
<g>
</g>
<g>
</g>
<g>
</g>
<g>
</g>
</svg>
